src/pos-icons/zodiac-leo.svg

<svg height="24" viewBox="0 0 24 24" width="24" xmlns="http://www.w3.org/2000/svg"><path d="m20 17a3 3 0 0 1 -3 3c-1.62-.08-2.92-1.38-3-3 .16-1.61.5-3.2 1-4.74.54-1.71.87-3.47 1-5.26-.07-2.73-2.27-4.93-5-5-2.73.07-4.93 2.27-5 5 .15 1.53.5 3.03 1 4.5l.21.7c-2.11-.67-4.35.5-5.02 2.6-.69 2.11.49 4.36 2.6 5.03s4.35-.5 5.02-2.61c.13-.39.19-.81.19-1.22-.16-1.73-.5-3.44-1.09-5.08-.44-1.27-.75-2.58-.91-3.92.08-1.62 1.38-2.92 3-3 1.62.08 2.92 1.38 3 3-.16 1.61-.5 3.2-1 4.74-.54 1.71-.87 3.47-1 5.26.07 2.73 2.27 4.93 5 5a5 5 0 0 0 5-5zm-14 1a2 2 0 0 1 -2-2 2 2 0 0 1 2-2 2 2 0 0 1 2 2 2 2 0 0 1 -2 2z"/></svg>

<?xml version="1.0" encoding="UTF-8"?><!DOCTYPE svg PUBLIC "-//W3C//DTD SVG 1.1//EN" "http://www.w3.org/Graphics/SVG/1.1/DTD/svg11.dtd"><svg xmlns="http://www.w3.org/2000/svg" xmlns:xlink="http://www.w3.org/1999/xlink" version="1.1" id="mdi-zodiac-leo" width="24" height="24" viewBox="0 0 24 24"><path d="M20,17A3,3 0 0,1 17,20C15.38,19.92 14.08,18.62 14,17C14.16,15.39 14.5,13.8 15,12.26C15.54,10.55 15.87,8.79 16,7C15.93,4.27 13.73,2.07 11,2C8.27,2.07 6.07,4.27 6,7C6.15,8.53 6.5,10.03 7,11.5L7.21,12.2C5.1,11.53 2.86,12.7 2.19,14.8C1.5,16.91 2.68,19.16 4.79,19.83C6.9,20.5 9.14,19.33 9.81,17.22C9.94,16.83 10,16.41 10,16C9.84,14.27 9.5,12.56 8.91,10.92C8.47,9.65 8.16,8.34 8,7C8.08,5.38 9.38,4.08 11,4C12.62,4.08 13.92,5.38 14,7C13.84,8.61 13.5,10.2 13,11.74C12.46,13.45 12.13,15.21 12,17C12.07,19.73 14.27,21.93 17,22A5,5 0 0,0 22,17H20M6,18A2,2 0 0,1 4,16A2,2 0 0,1 6,14A2,2 0 0,1 8,16A2,2 0 0,1 6,18Z" /></svg>
